X:162
T:Sandy o'er the Lee. VWMLa.162
%%VWML:Anon2-3049-p100-0
F:http://www.vwml.org/record/Anon2/3049/p100
S:Anon. MS, late 18thC, Vaughan Williams Mem. Library
O:England;Yorkshire
Z:vmp/efdss.Simon Wilson. Reviewed PJH 2008.
M:2/4
L:1/8
Q:1/4=160
K:A
E|A>BAc|ecec|B>cBd|f3(f/g/4a/4)|\
A>BAc|ec (ef/g/)|afec|A2z:|
|c|B>ABe|cAAc|B>ABe|(c2A)c|\
B>ABe|c>^dea|g>ef>g|!fermata!e3(e/4d/4c/4B/4)|
A>BAc|ecec|B>cBd|f3(f/g/4a/4)|\
A>BAc|ecfa|B>ABe|A2z|]
